X: 34733
T: Road To Lisdoonvarna, The
R: reel
M: 4/4
K: Dmixolydian
|:C|DAAG ABcA|GE~E2cEGE|DAAG ABcA|BcAG FDD:|
|:A|defd cAAc|BGGB cAA2|defd cAAc|BcAG FDD:|

